assets/awstransferfamily/original.svg

<svg height="64" viewBox="0 0 64 64" width="64" xmlns="http://www.w3.org/2000/svg"><g fill="none" fill-rule="evenodd"><path d="m0 0h64v64h-64z" fill="#01a88d"/><path d="m51.924 21.383a1 1 0 0 1 -.924.617h-4v6h2a1 1 0 0 1 1 1v23a1 1 0 0 1 -1 1h-34c-1.654 0-3-1.346-3-3v-28a1 1 0 0 1 1-1h11.076c.31 0 .603.143.792.389l2.016 2.61h4.116v2h-4.607a1 1 0 0 1 -.792-.387l-2.016-2.612h-9.585v27a1.001 1.001 0 0 0 2 0v-21a1 1 0 0 1 1-1h14v2h-13v20c0 .352-.072.685-.184 1h30.184v-21h-5v-2h2v-7a1 1 0 0 1 1-1h2.586l-5.586-5.586-5.586 5.586h2.586a1 1 0 0 1 1 1v11h4a1 1 0 0 1 .707 1.706l-8 8a1 1 0 0 1 -.707.294 1 1 0 0 1 -.707-.293l-8-8a1 1 0 0 1 .707-1.707h4v-6h2v7a1 1 0 0 1 -1 1h-2.586l5.586 5.587 5.586-5.587h-2.586a1 1 0 0 1 -1-1v-11h-4a1 1 0 0 1 -.707-1.706l8-8a1 1 0 0 1 1.414 0l8 8a1 1 0 0 1 .217 1.09" fill="#fff"/></g></svg>

<svg xmlns="http://www.w3.org/2000/svg" width="64" height="64" viewBox="0 0 64 64"><title>Icon-Architecture/48/Arch_AWS-Transfer-Family_48</title><g id="Icon-Architecture/48/Arch_AWS-Transfer-Family_48" fill="none" fill-rule="evenodd" stroke="none" stroke-width="1"><g id="Icon-Architecture-BG/48/Migration-Transfer" fill="#01a88d"><path id="Rectangle" d="M0 0h64v64H0z"/></g><path id="AWS-Transfer-Family_Icon-48_Squid" fill="#fff" d="M51.924 21.383A1 1 0 0 1 51 22h-4v6h2a1 1 0 0 1 1 1v23a1 1 0 0 1-1 1H15c-1.654 0-3-1.346-3-3V22a1 1 0 0 1 1-1h11.076c.31 0 .603.143.792.389l2.016 2.61H31v2h-4.607a1 1 0 0 1-.792-.387L23.585 23H14v27a1.001 1.001 0 0 0 2 0V29a1 1 0 0 1 1-1h14v2H18v20c0 .352-.072.685-.184 1H48V30h-5v-2h2v-7a1 1 0 0 1 1-1h2.586L43 14.414 37.414 20H40a1 1 0 0 1 1 1v11h4a1 1 0 0 1 .707 1.706l-8 8A1 1 0 0 1 37 42a1 1 0 0 1-.707-.293l-8-8A1 1 0 0 1 29 32h4v-6h2v7a1 1 0 0 1-1 1h-2.586L37 39.587l5.586-5.587H40a1 1 0 0 1-1-1V22h-4a1 1 0 0 1-.707-1.706l8-8a1 1 0 0 1 1.414 0l8 8a1 1 0 0 1 .217 1.09"/></g></svg>
